src/flags/country-flag/1F1F9-1F1F3.svg

<svg id="emoji" viewBox="0 0 72 72" xmlns="http://www.w3.org/2000/svg">
  <g id="grid">
    <path fill="#b3b3b3" d="M68,4V68H4V4H68m4-4H0V72H72V0Z"/>
    <path fill="none" stroke="#00a5ff" stroke-miterlimit="10" stroke-width="0.1" d="M12.923,10.9583H59.0769A1.9231,1.9231,0,0,1,61,12.8814V59.0352a1.9231,1.9231,0,0,1-1.9231,1.9231H12.9231A1.9231,1.9231,0,0,1,11,59.0352V12.8813A1.923,1.923,0,0,1,12.923,10.9583Z"/>
    <rect x="16" y="4" rx="2.2537" ry="2.2537" width="40" height="64" fill="none" stroke="#00a5ff" stroke-miterlimit="10" stroke-width="0.1"/>
    <rect x="16" y="4" rx="2.2537" ry="2.2537" width="40" height="64" transform="translate(72) rotate(90)" fill="none" stroke="#00a5ff" stroke-miterlimit="10" stroke-width="0.1"/>
    <circle cx="36" cy="36" r="29" fill="none" stroke="#00a5ff" stroke-miterlimit="10" stroke-width="0.1"/>
  </g>
  <g id="color">
    <rect x="5" y="17" width="62" height="38" fill="#d22f27"/>
    <circle cx="36" cy="36" r="9" fill="#fff"/>
    <path fill="#d22f27" stroke="#d22f27" stroke-linecap="round" stroke-linejoin="round" d="M38.0229,40.7143a4.7143,4.7143,0,1,1,2.1589-8.91,6,6,0,1,0,0,8.3914A4.753,4.753,0,0,1,38.0229,40.7143Z"/>
    <polygon fill="#d22f27" stroke="#d22f27" stroke-linecap="round" stroke-linejoin="round" points="38.388 38.71 38.238 33.443 41.266 37.581 36.516 36.152 41.173 34.326 38.388 38.71"/>
  </g>
  <g id="line">
    <rect x="5" y="17" width="62" height="38" fill="none" stroke="#000" stroke-linecap="round" stroke-linejoin="round" stroke-width="2"/>
  </g>
</svg>

<svg viewBox="0 0 72 72" xmlns="http://www.w3.org/2000/svg"><path fill="#b3b3b3" d="M68 4v64H4V4h64m4-4H0v72h72V0z"/><path fill="none" stroke="#00a5ff" stroke-miterlimit="10" stroke-width=".1" d="M12.923 10.958h46.154A1.923 1.923 0 0161 12.881v46.154a1.923 1.923 0 01-1.923 1.923H12.923A1.923 1.923 0 0111 59.035V12.881a1.923 1.923 0 011.923-1.923z"/><rect x="16" y="4" rx="2.254" ry="2.254" width="40" height="64" fill="none" stroke="#00a5ff" stroke-miterlimit="10" stroke-width=".1"/><rect x="16" y="4" rx="2.254" ry="2.254" width="40" height="64" transform="rotate(90 36 36)" fill="none" stroke="#00a5ff" stroke-miterlimit="10" stroke-width=".1"/><circle cx="36" cy="36" r="29" fill="none" stroke="#00a5ff" stroke-miterlimit="10" stroke-width=".1"/><path d="M5 17h62v38H5z" stroke-linecap="round" stroke-miterlimit="10" stroke-width="6" stroke="#fff" fill="none" stroke-linejoin="round"/><path fill="#d22f27" d="M5 17h62v38H5z"/><circle cx="36" cy="36" r="9" fill="#fff"/><path fill="#d22f27" stroke="#d22f27" stroke-linecap="round" stroke-linejoin="round" d="M38.023 40.714a4.714 4.714 0 112.159-8.91 6 6 0 100 8.392 4.753 4.753 0 01-2.16.518z"/><path fill="#d22f27" stroke="#d22f27" stroke-linecap="round" stroke-linejoin="round" d="M38.388 38.71l-.15-5.267 3.028 4.138-4.75-1.429 4.657-1.826-2.785 4.384z"/><g><path fill="none" stroke="#000" stroke-linecap="round" stroke-linejoin="round" stroke-width="2" d="M5 17h62v38H5z"/></g></svg>
